X:0592
M:C
L:1/8
Q:1/4=92 "Affectuoso"
K:G
d2 Be  A3 c|   BGEA           GFED |G2G2 G>AB>c |{Bc}d2cB {B}A4 |
d2 Be  A3 c|   BGEA           GFED |G2G2 G>AB>c |    B2A2    G4||
e2 e^d eBcB|   c2     cB      BAGE |c2F2 B2 e2  |    BAGF    E3F|

